X:579
T:Reel 579
M:4/4
K:Gmaj
L:1/8
dc|B2AG BGAF|G2Bd gedc|BGAG BGAG|FDEF G2dc|BGAG BGAF|G2Bd gedc|BGAG BGAG|FDEF G2|Bd|gfge fgaf|gfge fddf|g2ge fgaf|bgef g2ef|gfge fgaf|g2ge fddf|gfge fgaf|bgef gedB|
